X:56
T: Eoghan cóir, S. 155
N: I0555
O: Irland
S: O'SULLIVAN, Donal: Song of the Irish]
N: weggelassen: Vorhalt - 1. Note, letzte Zeile
R: Ballade?, historisches Lied]
M: 6/8
L: 1/16
K: F
CC | F2G2F2E2D2C2 | c6d2e2fe | d2c2B2A4GFE | D8-D2
DE | F2G2F2E2D2C2 | c6d3efe | d2c2B2A4G2 | F8-F2
A2 | c2c2A2c2d2e2 | f6A4fe | d2c2B2A4GFE | D8-D2
DE | F2G2F2E2D2C2 | c6d3efe | d2c2B2A4GF | F8-F2

